X: 37468
T: Slide From Grace
R: slip jig
M: 9/8
K: Bminor
|:d2B BAB def|d2B BAF A2B|d2B BAB def|1 a2f fed e2f:|2 a2f fed efa||
b3 afe def|AAA AFA dfa|b3 afe def|gfe e2d efa|
b3 afe def|AAA AFA Bdf|e2d fzA Bde|zfa baf e2 f||

